packages/core/src/svgs/tokens/mono/D2T.svg

<svg width="24" height="24" viewBox="0 0 24 24" fill="none" xmlns="http://www.w3.org/2000/svg">
<path d="M4.48309 19.3626C2.86951 17.2635 1.99639 14.6891 2.00001 12.0413C2.00001 9.33261 2.89542 6.83447 4.40784 4.81792H7.67345C8.456 4.87059 10.2619 5.0587 11.2251 5.44998C11.2626 5.07375 11.526 4.23101 12.2934 3.93003C13.2566 3.55382 13.5877 3.55382 15.4388 3.55382C16.4544 3.55382 17.2896 3.60649 18.0421 3.65163C18.6666 3.68925 19.246 3.72687 19.8178 3.72687C20.8337 3.72687 21.6991 3.38827 22 3.21521C21.7856 3.69636 21.452 4.11478 21.0307 4.43082C20.6091 4.74687 20.114 4.95004 19.5922 5.02107C19.216 5.08128 18.8022 5.12642 18.3883 5.17157C16.8609 5.34463 15.3334 5.51016 15.1754 6.25509C15.0174 7.00753 15.4914 7.98571 15.7548 8.39203C16.0557 8.91879 16.6124 10.1829 16.4695 11.0708C16.3793 11.6275 16.3191 11.8908 16.2739 12.0489C16.2358 12.1626 16.223 12.2834 16.2362 12.4026C16.2588 12.6282 16.8758 14.7051 17.1843 15.7134C17.3349 15.8863 17.6734 16.3003 17.8314 16.5861C18.0346 16.9397 18.2228 17.5267 17.7036 18.693C17.1769 19.8668 15.9353 20.7847 14.8216 20.7847C14.1369 20.7847 13.7984 20.3634 13.5124 19.9947C13.3319 19.769 13.1663 19.5659 12.9481 19.4906C12.8277 19.4455 12.6094 19.4079 12.3161 19.3552C11.1949 19.1445 9.06548 18.7532 7.97443 17.4364C7.2295 17.7373 5.58165 18.5274 4.48309 19.3626Z" fill="white"/>
</svg>

<svg xmlns="http://www.w3.org/2000/svg" width="24" height="24" fill="none" viewBox="0 0 24 24">
    <path fill="#fff" d="M4.483 19.363A12 12 0 0 1 2 12.04c0-2.708.895-5.207 2.408-7.223h3.265c.783.053 2.589.24 3.552.632.038-.376.301-1.219 1.068-1.52.964-.376 1.295-.376 3.146-.376 1.015 0 1.85.052 2.603.098.625.037 1.204.075 1.776.075 1.016 0 1.881-.339 2.182-.512a3.1 3.1 0 0 1-2.408 1.806 25 25 0 0 1-1.204.15c-1.527.174-3.055.34-3.213 1.084-.158.753.316 1.73.58 2.137.3.527.857 1.79.714 2.679-.09.556-.15.82-.195.978a.8.8 0 0 0-.038.354c.023.225.64 2.302.948 3.31.15.173.49.587.647.873.204.354.392.94-.127 2.107-.527 1.174-1.769 2.092-2.882 2.092-.685 0-1.024-.422-1.31-.79-.18-.226-.346-.43-.564-.504-.12-.046-.339-.083-.632-.136-1.121-.21-3.25-.602-4.342-1.919-.745.301-2.392 1.091-3.49 1.927"/>
</svg>
